X: 39506
T: Tattoo, The
R: reel
M: 4/4
K: Aminor
|:E^GBE - EGBd|cBAB cA^GB|E^GBE - EGBd|cBAcB2B2|
E^GBE - EGBd|cBAc BA^GE|DEF^G - GFEF|1 EDB,CA,2A,2:|2 ^GABcA2A2||
|:a^gae - edcA|dfed cdBc|a^gae - edcA|defa ^gfec|
Acae - edcA|dfed cdBc|DEF^G - GFEF|^GABcA2A2:|

